X:210
M:C|
L:1/8
K:F
g|f/g/a gf f/g/a gf|gfef gabg|f/g/a gf dfcf|agfe ~f2 fg|f//g/a gf f/g/a gf|
gfef gabg|afge fdec|fBcA GABG||

